X:1
T:Loquebar de testimoniis
T:Heinrich Isaac (c1450-1517)
T:Loquebar de testimoniis
C:Heinrich Isaac (c1450-1517)
%%score [ 1 2 3 4 ]
L:1/8
M:4/2
K:C
V:1 treble nm="P1"
V:2 alto nm="P2"
V:3 alto transpose=-12 nm="P3"
V:4 bass nm="P4"
V:1
 (F2 A2) (c2 d2) c8 |[M:2/2] z16 | z8 c8 | c4 c4 d8 | c6 B2 A2 G2 c4- | c4 B4 (c8 | e8) d8 | %7
w: Lo- * que- * bar||de|tes- ti- mo-|ni- * * * *|* is tu-||
 G8 z8 | z16 | z8 c8 | d4 e8 d4 | e4 d2 c2 B4 G4 | A8 G8 | z4 c6 d2 e2 f2 | d4 c4 d8 | %15
w: is||in|con- * spec-|tu- * * * *||re- * * *||
 c4 e8 d2 c2 | B4 c8 B4 | c8 z4 A4 | A4 G2 F2 A6 B2 | c8 d8 | e6 d2 c2 B2 d4- | d4 c8 B4 | c16 | %23
w: ||gum et|non- * * con- *|fun- *|* * * * de-||bar|
 z16 | z8 c8 | F6 G2 A6 B2 | c8- d8 | c8 z8 | z8 c8 | F6 G2 A6 B2 | (c8 d8) | c4 e8 d4 | e4 c8 B4 | %33
w: |et|me- di- * *|ta- *|bar|in|man- * * *|da- tis|_ _ _|* * tu-|
 c4 F4 G8 | A4 c8 B4 | c4 A4 G8 | z8 z4 G4 | A6 _B2 c2 B2 c4- | c2 _B2 A2 G2 F4 G4- | G2 D2 F8 E4 | %40
w: ||* * is|quae|di- * * * lex-|* i _ _ _ ni-||
 !fermata!F16 |] %41
w: mis.|
V:2
 x16 |[M:2/2][K:treble] C8 C4 C4 | D8 C6 B,2 | A,2 G,2 C8 B,4 | C6 D2 E2 F2 G4- | G4 F4 G8 | %6
w: |de tes- ti-|mo- ni- *||* * is tu- *||
 z4 G4 F4 D4 | E8 z8 | z16 | z4 G4 A8 | G4 F2 E2 F8 | E8 z8 | z4 A,4 B,4 C4- | C4 B,2 A,2 G,4 A,4 | %14
w: |is||in con-|* spec- * *|tu|re- * *||
 _B,12 A,2 G,2 | G,8 z4 G4- | G2 E2 ^F4 G8 | E16- | E8 F8- | F8- F8 | E8 z4 D4 | E4 F4 G8 | E16- | %23
w: |gum et|_ _ non con-|fun-|* de-||bar et|me- di- *|ta-|
 E8 F8- | F8 E8 | z4 D4 E6 D2 | E4 F8 E2 D2 | E8 F8- | F8 E8 | z4 D4 E6 F2 | G2 E2 A8 G4 | %31
w: * bar|_ _|in man- *||da- *|* tis|in man- *|* * da- *|
 A4 E4 F6 G2 | E4 F4 D8 | z4 C4 D4 E4 | F8 D8 | z4 C4 D4 E4 | D2 C2 F8 E4 | F12 E2 D2 | C8 D4 A,4 | %39
w: |tis _ _|tu- * *|* is|quae _ di-|lex- * * *||i ni- *|
 A,4 B,4 C8 | !fermata!C16 |] %41
w: |mis.|
V:3
 x16 |[M:2/2][K:treble-8] z16 | z16 | z16 | c8 c4 c4 | d8 c6 B2 | A2 G2 c8 B4 | c4 e4 d4 (G4 | %8
w: ||||de tes- ti-|mo- ni- *||* * is tu-|
 G4) c8 B4 | c8 z8 | z16 | c8 d4 e4- | e4 d4 e8- | e16 | f16 | e4 c6 d2 e2 f2 | d4 c4 d8 | (c16 | %18
w: |is||in con- spec-|* * tu|_||re- * * * *||gum|
 d8) z4 A4- | A4 G2 F2 A6 B2 | c6 d2 e4 f4 | c8 d8 | c8 z8 | c8 F6 G2 | A6 B2 (c8 | d8) c8- | %26
w: _ et|_ _ _ non _|con- * * fun-|de- *|bar|et me- *|di- * ta-|* bar|
 c8 z8 | c8 F6 G2 | A6 B2 (c8 | d8 c8) | z4 e8 d4 | e4 c8 B4 | c4 F4 G8 | A4 c8 _B4 | c4 A4 G8 | %35
w: _|in man- *|da- * tis|_ _|tu- *||||* * is|
 z8 z4 G4 | A6 _B2 c2 B2 c4- | c2 _B2 A2 G2 F8 | z4 F4 _B6 c2 | A4 F4 G8 | !fermata!F16 |] %41
w: quae|di- * * * lex-|* * * i _|ni- mis _|_ _ _||
V:4
 x16 |[M:2/2][K:bass] z16 | z16 | z16 | z16 | z8 C,8 | C,4 C,4 D,8 | C,8 D,4 E,4- | %8
w: |||||de|tes- ti- mo-|ni- * *|
 E,4 D,2 C,2 D,8 | C,8 z8 | z4 C4 A,4 B,4 | C4 B,2 A,2 G,4 E,4 | F,8 E,8 | C,16 | _B,,16 | %15
w: * * is tu-|is|in con- spec-|tu _ _ _ _|re- *|||
 C,8 z4 C,4 | G,4 A,4 G,8 | A,16- | A,8 F,8- | F,4 E,4 D,8 | C,4 C8 _B,4 | A,8 G,8 | A,16 | %23
w: gum et|non con- fun-||* de-||* * bar|et _|_|
 A,8 D,6 E,2 | F,6 G,2 A,8 | _B,8 A,8- | A,8 z8 | A,8 D,6 E,2 | F,6 G,2 (A,8 | _B,8) A,4 C4 | %30
w: * me- di-|* * ta-|* bar|_|in man- da-|* * tis|_ tu _|
 C4 _B,2 A,2 B,8 | A,8 z8 | z8 z4 G,4 | F,4 A,4 G,8 | F,8 z4 G,4 | C,4 F,8 E,4 | F,4 D,4 C,8 | %37
w: _ _ _ _|is|tu-||is quae|di _ _|_ _ lex-|
"^From \"A General History of Music\" by Charles Burney, volume I page 762 in the Dover edition." F,6 G,2 A,2 G,2 A,4- | %38
w: i _ _ _ ni-|
 A,2 G,2 F,2 E,2 D,4 E,4 | F,4 D,4 C,8 | !fermata!F,16 |] %41
w: ||mis.|

